X: 24
T:Kevin Burke Polka #2
R:polka
Z:Added by Alf Warnock
M:4/4
L:1/8
K:Bm
|:B2Bc dBBd|cAAc d/2c/2B/2A/2BF|B2Bc dBBd|ef/2e/2dc BABF:|
f2df eccd|ef/2e/2dc Bcde|f2df eccd|ef/2e/2dc BAB2:|

